!!!!SEGMENT: pl-wnifc--13846--150_anonim--piesni-polskie-i-ruskie-ludu-galicyjskiego-150-oj-tam-na-hori.krn
!!!cenid: 18xx:3372
!!!COM: Anonim
!!!COM-rismID: pe30004985
!!!CDT:
!!!CNT:
!!!GTL: Pieśni polskie i ruskie ludu galicyjskiego
!!!OTL: 150. Oj tam na hori
!!!PDT: 1833
!!!AGN:
!!!SMS-siglum: PL-Wnifc
!!!SMS-shelfmark: 13846
!!!SMS-shelfwork: 150 G
!!!NIFC-rismSourceID: 1001036701
!!!NIFC-rismChildID: 1001039683
!!!NIFC-islandoraID: nifc:210326
!!!URL-pdf-islandora: https://repozytorium.nifc.pl/islandora/object/nifc%3A210326/datastream/PDF/view
!!!URL-scan:
!!!ONB-nifc:
!!!OMD: Vivace
!!!AIN: 1 piano 1 soprn
!!!key: D
**kern	**kern	**kern	**text
*group2	*group2	*group1	*
*part2	*part2	*part1	*part1
*staff3	*staff2	*staff1	*staff1
*I"[Piano]	*I"[Piano]	*I"[Soprano]	*
*Ipiano	*Ipiano	*Isoprn	*
*ICklav	*ICklav	*ICvox	*
*IGacmp	*IGacmp	*IGsolo	*
*clefF4	*clefG2	*clefG2	*
*k[f#c#]	*k[f#c#]	*k[f#c#]	*
*D:	*D:	*D:	*
*M2/4	*M2/4	*M2/4	*
*>[A,B,B]	*>[A,B,B]	*>[A,B,B]	*
=1-	=1-	=1-	=1-
*>A	*>A	*>A	*
*tremolo	*	*	*
!	!	!LO:TX:b:B:rj:t=E.296.	!
8FF#/ 8AAL/	4a^<\ 4aa\	4a/	Oj
8CC#/	.	.	.
8FF#/ 8AA/	4dd^<\ 4ddd\	4dd\	tam
8CC#J/	.	.	.
*Xtremolo	*	*	*
=2	=2	=2	=2
*^	*	*	*
8BB/L	4GG\	8cc#\L 8ccc#\	8cc#\	na
8CC#/	.	8cc#\J 8ccc#\	8cc#\	ho-
8AA/	4FF#\	4dd\ 4ddd\	4dd\	-ri,
8CC#/J	.	.	.	.
=3	=3	=3	=3	=3
8GG/L	4EE\	8ee\L	8ee\	ma-
8CC#/	.	8ee\	8ee\	-lo-
8AA/	4FF#\	8ff#\	8ff#\	-wa-
8CC#/J	.	8dd\J	8dd\	-ły
!!LO:LB:g=original
=4	=4	=4	=4	=4
8BB/L	4GG\	8cc#\L	8cc#\	ma-
8CC#/	.	8cc#\J	8cc#\	-la
8AA/	4FF#\	4dd\	4dd\	ri,
8CC#/J	.	.	.	.
*v	*v	*	*	*
=5!|:	=5!|:	=5!|:	=5!|:
*>B	*>B	*>B	*
*tremolo	*	*	*
!!mixed beam:problem
!LO:TX:t=P:problem=mxied beam	!	!	!
8AA/L	8cc#\L 8ee\	8ee\	ma-
8A\	8cc#\ 8ee\	8ee\	-lo-
8AA/	8dd\ 8ff#\	8ff#\	-wa-
8AJ\	8b\J 8dd\	8dd\	-ły
!!LO:LB:g=original
=6	=6	=6	=6
!!mixed beam:problem
!LO:TX:t=P:problem=mxied beam	!	!	!
8AAL/	8a\L 8cc#\	8cc#\	cze-
8A\	8a\ 8cc#\	8cc#\	-re-
8AA/	8b\ 8dd\	8dd\	-wycz-
8AJ\	8g#X\J 8b\	8b\	-ki
=7	=7	=7	=7
!!mixed beam:problem
!LO:TX:t=P:problem=mxied beam	!	!	!
8AAL/	8cc#\L 8ee\	8ee\	dla
8A\	8cc#\ 8ee\	8ee\	cho-
8AA/	8dd\ 8ff#\	8ff#\	-ro-
8AJ\	8b\J 8dd\	8dd\	-szoj
=8	=8	=8	=8
!!mixed beam:problem
!LO:TX:t=P:problem=mxied beam	!	!	!
8AAL/	8e/L 8cc#/	8cc#\	mo-
8A\	8e/ 8cc#/	8cc#\	-ło-
8AA/	8f#/ 8dd/	8dd\	-dycz-
8AJ\	8d/J 8b/	8b\	-ki
*Xtremolo	*	*	*
!!LO:LB:g=original
=9	=9	=9	=9
8AA/L 8A/	8c#/L 8a/	8a/	ta
8AA/ 8A/	8c#/ 8a/	8a/	ne
8AA/ 8G#X/	8d/ 8b/	8b/	zna-
8AA/J 8G#/	8d/J 8b/	8b/	-ty
=10	=10	=10	=10
4AA/ 4A/	8c#/L 8a/	8a/	dla
.	8c#/J 8a/	8a/	ko-
.	(<32qa/LLL	.	.
.	32qcc#/	.	.
.	32qee/JJJ)	.	.
4AAA/ 4AA/	4aa^<\	4aa\	-tri.
=:|!	=:|!	=:|!	=:|!
*-	*-	*-	*-
!!!RDF**kern: > = above
!!!RDF**kern: < = below
!!!system-decoration: g1,[{g2}]
!!!ENC: Jędrzej Mróz
!!!END: 2021-11-12
!!!YEC: Copyright 2022 Narodowy Instytut Fryderyka Chopina (https://polishscores.org)
!!!YEM: License CC-BY-4.0 (https://creativecommons.org/licenses/by/4.0)
